X: 24309
T: Lou Fustié
R: jig
M: 6/8
K: Bminor
.B2c .d2c|.B2c .d2e|.f2e .d2c|d3 B3|
.B2c .d2c|.B2c .d2e|.f2e .d2c|1 B3 z3:|2 B3 z2B||
.e2f .g2e|f3 .d2d|e3 .c2c|d3 B2B|
.e2f .g2e|f3 .B2B|.c2e .d2c|B3 z3||

